Sweet-Rainbow/icons/uget.svg

<?xml version="1.0" encoding="UTF-8" standalone="no"?>
<!-- Generator: Gravit.io -->

<svg
   xmlns:dc="http://purl.org/dc/elements/1.1/"
   xmlns:cc="http://creativecommons.org/ns#"
   xmlns:rdf="http://www.w3.org/1999/02/22-rdf-syntax-ns#"
   xmlns:svg="http://www.w3.org/2000/svg"
   xmlns="http://www.w3.org/2000/svg"
   xmlns:sodipodi="http://sodipodi.sourceforge.net/DTD/sodipodi-0.dtd"
   xmlns:inkscape="http://www.inkscape.org/namespaces/inkscape"
   style="isolation:isolate"
   viewBox="0 0 36 36"
   width="48"
   height="48"
   version="1.1"
   id="svg9"
   sodipodi:docname="uget.svg"
   inkscape:version="0.92.4 (5da689c313, 2019-01-14)">
  <metadata
     id="metadata15">
    <rdf:RDF>
      <cc:Work
         rdf:about="">
        <dc:format>image/svg+xml</dc:format>
        <dc:type
           rdf:resource="http://purl.org/dc/dcmitype/StillImage" />
        <dc:title></dc:title>
      </cc:Work>
    </rdf:RDF>
  </metadata>
  <defs
     id="defs13" />
  <sodipodi:namedview
     pagecolor="#ffffff"
     bordercolor="#666666"
     borderopacity="1"
     objecttolerance="10"
     gridtolerance="10"
     guidetolerance="10"
     inkscape:pageopacity="0"
     inkscape:pageshadow="2"
     inkscape:window-width="640"
     inkscape:window-height="480"
     id="namedview11"
     showgrid="false"
     inkscape:zoom="29.365243"
     inkscape:cx="25.325443"
     inkscape:cy="32"
     inkscape:current-layer="svg9"
     units="px" />
  <linearGradient
     id="_lgradient_35"
     x1="0.05792683"
     y1="0.82558137"
     x2="1.0084689"
     y2="0.15697674"
     gradientTransform="matrix(41,0,0,43,3.5,2.5)"
     gradientUnits="userSpaceOnUse">
    <stop
       offset="0%"
       stop-opacity="1"
       style="stop-color:rgb(67,233,123)"
       id="stop2" />
    <stop
       offset="97.82608695652173%"
       stop-opacity="1"
       style="stop-color:rgb(56,249,215)"
       id="stop4" />
  </linearGradient>
  <g
     id="g826"
     transform="matrix(0.8372093,0,0,0.8372093,-2.0930232,-2.0930232)">
    <path
       id="path7"
       d="m 29.5,17.25 c -2.208,0 -4,1.008 -4,2.25 v 0 9 h 4.54 l -7.36,7.23 -5.66,-7.23 h 4.48 v -16 0 c 0,-1.104 -0.896,-2 -2,-2 v 0 c -1.104,0 -2,0.896 -2,2 v 0 12 h -5.52 c -2.208,0 -2.835,1.362 -1.4,3.04 l 9.14,10.69 c 1.435,1.678 3.899,1.805 5.499,0.284 L 37.061,27.256 C 38.661,25.735 38.168,24.5 35.96,24.5 H 29.5 v -3.25 h 1 7 c 1.656,0 3,1.344 3,3 V 38.5 c 0,1.656 -1.344,3 -3,3 h -27 c -1.656,0 -3,-1.344 -3,-3 v -7 c 0,-1.104 -0.896,-2 -2,-2 v 0 c -1.104,0 -2,0.896 -2,2 v 9 c 0,2.76 2.24,5 5,5 h 31 c 2.76,0 5,-2.24 5,-5 V 22.25 c 0,-2.76 -2.24,-5 -5,-5 h -9 z m -22,2.25 v 0 c 0,1.104 -0.896,2 -2,2 v 0 c -1.104,0 -2,-0.896 -2,-2 v 0 -12 c 0,-2.76 2.24,-5 5,-5 h 34 v 0 c 1.104,0 2,0.896 2,2 v 0 c 0,1.104 -0.896,2 -2,2 v 0 h -32 c -1.656,0 -3,1.344 -3,3 z m 18,-7 c 0,-1.104 0.896,-2 2,-2 1.104,0 2,0.896 2,2 0,1.104 -0.896,2 -2,2 -1.104,0 -2,-0.896 -2,-2 z m -22,13 c 0,-1.104 0.896,-2 2,-2 1.104,0 2,0.896 2,2 0,1.104 -0.896,2 -2,2 -1.104,0 -2,-0.896 -2,-2 z"
       inkscape:connector-curvature="0"
       style="fill:url(#_lgradient_35);fill-rule:evenodd" />
  </g>
</svg>

<?xml version="1.0" encoding="UTF-8" standalone="no"?><!-- Generator: Gravit.io --><svg xmlns="http://www.w3.org/2000/svg" xmlns:xlink="http://www.w3.org/1999/xlink" style="isolation:isolate" viewBox="0 0 48 48" width="48pt" height="48pt"><linearGradient id="_lgradient_35" x1="0.057926829268292596" y1="0.8255813953488372" x2="1.0084688346883468" y2="0.1569767441860468" gradientTransform="matrix(41,0,0,43,3.5,2.5)" gradientUnits="userSpaceOnUse"><stop offset="0%" stop-opacity="1" style="stop-color:rgb(67,233,123)"/><stop offset="97.82608695652173%" stop-opacity="1" style="stop-color:rgb(56,249,215)"/></linearGradient><path d=" M 29.5 17.25 C 27.292 17.25 25.5 18.258 25.5 19.5 L 25.5 19.5 L 25.5 28.5 L 30.04 28.5 L 22.68 35.73 L 17.02 28.5 L 21.5 28.5 L 21.5 12.5 L 21.5 12.5 C 21.5 11.396 20.604 10.5 19.5 10.5 L 19.5 10.5 C 18.396 10.5 17.5 11.396 17.5 12.5 L 17.5 12.5 L 17.5 24.5 L 11.98 24.5 C 9.772 24.5 9.145 25.862 10.58 27.54 L 19.72 38.23 C 21.155 39.908 23.619 40.035 25.219 38.514 L 37.061 27.256 C 38.661 25.735 38.168 24.5 35.96 24.5 L 29.5 24.5 L 29.5 21.25 L 30.5 21.25 L 37.5 21.25 C 39.156 21.25 40.5 22.594 40.5 24.25 L 40.5 38.5 C 40.5 40.156 39.156 41.5 37.5 41.5 L 10.5 41.5 C 8.844 41.5 7.5 40.156 7.5 38.5 L 7.5 31.5 C 7.5 30.396 6.604 29.5 5.5 29.5 L 5.5 29.5 C 4.396 29.5 3.5 30.396 3.5 31.5 L 3.5 40.5 C 3.5 43.26 5.74 45.5 8.5 45.5 L 39.5 45.5 C 42.26 45.5 44.5 43.26 44.5 40.5 L 44.5 22.25 C 44.5 19.49 42.26 17.25 39.5 17.25 L 30.5 17.25 L 29.5 17.25 L 29.5 17.25 L 29.5 17.25 L 29.5 17.25 Z  M 7.5 19.5 L 7.5 19.5 C 7.5 20.604 6.604 21.5 5.5 21.5 L 5.5 21.5 C 4.396 21.5 3.5 20.604 3.5 19.5 L 3.5 19.5 L 3.5 7.5 C 3.5 4.74 5.74 2.5 8.5 2.5 L 42.5 2.5 L 42.5 2.5 C 43.604 2.5 44.5 3.396 44.5 4.5 L 44.5 4.5 C 44.5 5.604 43.604 6.5 42.5 6.5 L 42.5 6.5 L 10.5 6.5 C 8.844 6.5 7.5 7.844 7.5 9.5 L 7.5 19.5 L 7.5 19.5 L 7.5 19.5 Z  M 25.5 12.5 C 25.5 11.396 26.396 10.5 27.5 10.5 C 28.604 10.5 29.5 11.396 29.5 12.5 C 29.5 13.604 28.604 14.5 27.5 14.5 C 26.396 14.5 25.5 13.604 25.5 12.5 L 25.5 12.5 Z  M 3.5 25.5 C 3.5 24.396 4.396 23.5 5.5 23.5 C 6.604 23.5 7.5 24.396 7.5 25.5 C 7.5 26.604 6.604 27.5 5.5 27.5 C 4.396 27.5 3.5 26.604 3.5 25.5 Z " fill-rule="evenodd" fill="url(#_lgradient_35)"/></svg>
